symbols/web/calendar_view_day/materialsymbolssharp/calendar_view_day_wght100_20px.svg

<svg xmlns="http://www.w3.org/2000/svg" height="20" width="20"><path d="M3.583 15.75v-.667h12.834v.667Zm0-2.646V6.896h12.834v6.208Zm.667-.666h11.5V7.562H4.25Zm-.667-7.521V4.25h12.834v.667Zm.667 7.521V7.562v4.876Z"/></svg>

<svg xmlns="http://www.w3.org/2000/svg" height="20" width="20"><path d="M3.583 15.75V15.083H16.417V15.75ZM3.583 13.104V6.896H16.417V13.104ZM4.25 12.438H15.75V7.562H4.25ZM3.583 4.917V4.25H16.417V4.917ZM4.25 12.438V7.562V12.438Z"/></svg>
